X:1
T:Bay of Fundy
C:Bill Guest (1970s)
L:1/8
M:2/2
S:printed page of unknown origin, titled "Alternate Bay of Fundy"
Z:2017 John Chambers <jc:trillian.mit.edu>
K:D
fg |\
"D"a2ab afdf "D"| afbf a2ef | "C"g2ga ge=ce | "C"gfga g2fg | "D"a2ab afdf |
"D"afbf a2ef | "G"gfeg "D"fedf | "A7"edc2 "D"d2 :: (3(AcB) | "D"d2fd edfd | "G"B2gB fBeB |
"A7"cdef gfed | "A7"c{B}A eA fAeA | "D"d2fd edfd | "G"B2gB fBeB | "A7"cdef gfed | "A7"cABc "D"d2 :|
